app/client/src/assets/icons/blueprintjs/20px/credit-card.svg

<svg xmlns="http://www.w3.org/2000/svg" xml:space="preserve" viewBox="0 0 20 20"><path fill-rule="evenodd" d="M19 3H1c-.55 0-1 .45-1 1v2h20V4c0-.55-.45-1-1-1zM0 16c0 .55.45 1 1 1h18c.55 0 1-.45 1-1V8H0v8zm6.5-2h7c.28 0 .5.22.5.5s-.22.5-.5.5h-7c-.28 0-.5-.22-.5-.5s.22-.5.5-.5zm-4 0h2c.28 0 .5.22.5.5s-.22.5-.5.5h-2c-.28 0-.5-.22-.5-.5s.22-.5.5-.5z" clip-rule="evenodd"/></svg>

<?xml version="1.0" encoding="utf-8"?>
<!-- Generator: Adobe Illustrator 17.1.0, SVG Export Plug-In . SVG Version: 6.00 Build 0)  -->
<!DOCTYPE svg PUBLIC "-//W3C//DTD SVG 1.1//EN" "http://www.w3.org/Graphics/SVG/1.1/DTD/svg11.dtd">
<svg version="1.1" id="Layer_1" xmlns="http://www.w3.org/2000/svg" xmlns:xlink="http://www.w3.org/1999/xlink" x="0px" y="0px"
	 viewBox="0 0 20 20" enable-background="new 0 0 20 20" xml:space="preserve">
<g id="credit_card_1_">
	<g>
		<path fill-rule="evenodd" clip-rule="evenodd" d="M19,3H1C0.45,3,0,3.45,0,4v2h20V4C20,3.45,19.55,3,19,3z M0,16
			c0,0.55,0.45,1,1,1h18c0.55,0,1-0.45,1-1V8H0V16z M6.5,14h7c0.28,0,0.5,0.22,0.5,0.5c0,0.28-0.22,0.5-0.5,0.5h-7
			C6.22,15,6,14.78,6,14.5C6,14.22,6.22,14,6.5,14z M2.5,14h2C4.78,14,5,14.22,5,14.5C5,14.78,4.78,15,4.5,15h-2
			C2.22,15,2,14.78,2,14.5C2,14.22,2.22,14,2.5,14z"/>
	</g>
</g>
</svg>
